static/img/kroki/7f36a1a8c74018c8c06ebe19d684300e.svg

<?xml version="1.0" encoding="us-ascii" standalone="no"?><svg xmlns="http://www.w3.org/2000/svg" xmlns:xlink="http://www.w3.org/1999/xlink" contentStyleType="text/css" height="152px" preserveAspectRatio="none" style="width:278px;height:152px;" version="1.1" viewBox="0 0 278 152" width="278px" zoomAndPan="magnify"><defs/><g><!--class digitalocean_cdn_endpoint--><g id="elem_digitalocean_cdn_endpoint"><rect codeLine="22" fill="#3D176E" height="39.7891" id="digitalocean_cdn_endpoint" rx="2.5" ry="2.5" style="stroke:#000D19;stroke-width:0.5;" width="264" x="7" y="106.79"/><ellipse cx="22" cy="126.6845" fill="#ADD1B2" rx="11" ry="11" style="stroke:#181818;stroke-width:1.0;"/><path d="M24.9688,132.3252 Q24.3906,132.622 23.75,132.7627 Q23.1094,132.9189 22.4063,132.9189 Q19.9063,132.9189 18.5781,131.2783 Q17.2656,129.622 17.2656,126.497 Q17.2656,123.372 18.5781,121.7158 Q19.9063,120.0595 22.4063,120.0595 Q23.1094,120.0595 23.75,120.2158 Q24.4063,120.372 24.9688,120.6689 L24.9688,123.3877 Q24.3438,122.8095 23.75,122.5439 Q23.1563,122.2627 22.5313,122.2627 Q21.1875,122.2627 20.5,123.3408 Q19.8125,124.4033 19.8125,126.497 Q19.8125,128.5908 20.5,129.6689 Q21.1875,130.7314 22.5313,130.7314 Q23.1563,130.7314 23.75,130.4658 Q24.3438,130.1845 24.9688,129.6064 L24.9688,132.3252 Z " fill="#000000"/><text fill="#D9B8FF" font-family="Helvetica" font-size="17" lengthAdjust="spacing" textLength="222" x="41" y="132.5698">digitalocean_cdn_endpoint</text></g><!--class digitalocean_team--><g id="elem_digitalocean_team"><rect codeLine="24" fill="#3D176E" height="39.7891" id="digitalocean_team" rx="2.5" ry="2.5" style="stroke:#000D19;stroke-width:0.5;" width="196" x="41" y="7"/><ellipse cx="56" cy="26.8945" fill="#ADD1B2" rx="11" ry="11" style="stroke:#181818;stroke-width:1.0;"/><path d="M58.9688,32.5352 Q58.3906,32.832 57.75,32.9727 Q57.1094,33.1289 56.4063,33.1289 Q53.9063,33.1289 52.5781,31.4883 Q51.2656,29.832 51.2656,26.707 Q51.2656,23.582 52.5781,21.9258 Q53.9063,20.2695 56.4063,20.2695 Q57.1094,20.2695 57.75,20.4258 Q58.4063,20.582 58.9688,20.8789 L58.9688,23.5977 Q58.3438,23.0195 57.75,22.7539 Q57.1563,22.4727 56.5313,22.4727 Q55.1875,22.4727 54.5,23.5508 Q53.8125,24.6133 53.8125,26.707 Q53.8125,28.8008 54.5,29.8789 Q55.1875,30.9414 56.5313,30.9414 Q57.1563,30.9414 57.75,30.6758 Q58.3438,30.3945 58.9688,29.8164 L58.9688,32.5352 Z " fill="#000000"/><text fill="#D9B8FF" font-family="Helvetica" font-size="17" lengthAdjust="spacing" textLength="154" x="75" y="32.7798">digitalocean_team</text></g><!--link digitalocean_team to digitalocean_cdn_endpoint--><g id="link_digitalocean_team_digitalocean_cdn_endpoint"><path codeLine="26" d="M139,47.22 C139,64.36 139,83.27 139,100.41 " fill="none" id="digitalocean_team-to-digitalocean_cdn_endpoint" style="stroke:#1A83AF;stroke-width:2.0;"/><polygon fill="#1A83AF" points="139,106.41,143,97.41,139,101.41,135,97.41,139,106.41" style="stroke:#1A83AF;stroke-width:2.0;"/></g><!--SRC=[XP1FIyD04CNl_HGBFHSIWwQv235Gz5B4UXCfqynikpJP3RDJInM_kurLMPF-kRxtuxqtip98Ykf6TggcUa7i1tvjR0CCjSgPtRPmbMCrr1fqadRDYRDo4PX2JUgUgZSIKqANU5wPSct9UtKLM7TGhfViDXOFyS9W_TuYAm5LLE1zBi9ciH4Anc2s66lT9RkXmmJZz8Pwc6Ca_a6YAC8uwo8NgyxU_KVCp3kfE7pQr0drPlOglgcpAriY6DaxzDS_kV4H48rTgkj0UpfiOalyJv-j0DssfJLKFgpnGanETWqLlQie6wDEZy8Ff-2o_Pn2ipG2bIi9xBn4EoUBZJDMrCVWynWZj8zllRuwUXd6-JZ99w-ZszF1Nm00]--></g></svg>

<svg xmlns="http://www.w3.org/2000/svg" width="278" height="152" viewBox="0 0 278 152"><rect width="264" height="39.789" x="7" y="106.79" fill="#3D176E" rx="2.5" ry="2.5" style="stroke:#000d19;stroke-width:.5"/><circle cx="22" cy="126.684" r="11" fill="#ADD1B2" style="stroke:#181818;stroke-width:1"/><path d="M24.969 132.325q-.578.297-1.219.438-.64.156-1.344.156-2.5 0-3.828-1.64-1.312-1.657-1.312-4.782t1.312-4.781q1.328-1.656 3.828-1.656.703 0 1.344.156.656.156 1.219.453v2.719q-.625-.579-1.219-.844-.594-.281-1.219-.281-1.343 0-2.031 1.078-.687 1.062-.687 3.156t.687 3.172q.688 1.062 2.031 1.062.625 0 1.219-.265.594-.281 1.219-.86z"/><text x="41" y="132.57" fill="#D9B8FF" font-family="Helvetica" font-size="17" textLength="222">digitalocean_cdn_endpoint</text><rect width="196" height="39.789" x="41" y="7" fill="#3D176E" rx="2.5" ry="2.5" style="stroke:#000d19;stroke-width:.5"/><circle cx="56" cy="26.895" r="11" fill="#ADD1B2" style="stroke:#181818;stroke-width:1"/><path d="M58.969 32.535q-.578.297-1.219.438-.64.156-1.344.156-2.5 0-3.828-1.64-1.312-1.657-1.312-4.782t1.312-4.781q1.328-1.656 3.828-1.656.703 0 1.344.156.656.156 1.219.453v2.719q-.625-.578-1.219-.844-.594-.281-1.219-.281-1.343 0-2.031 1.078-.687 1.062-.687 3.156t.687 3.172q.688 1.062 2.031 1.062.625 0 1.219-.265.594-.281 1.219-.86z"/><text x="75" y="32.78" fill="#D9B8FF" font-family="Helvetica" font-size="17" textLength="154">digitalocean_team</text><path fill="none" d="M139 47.22v53.19" style="stroke:#1a83af;stroke-width:2"/><path fill="#1A83AF" d="m139 106.41 4-9-4 4-4-4z" style="stroke:#1a83af;stroke-width:2"/></svg>
